X:118
T:Mountain Road
M:4/4
R:Reel
C:Traditional
K:D
F2 AF BFAF | F2 AF EFDE | F2 AF BFAF | G2F2 EFDE |
F2 AF BFAF | F2 AF EFDE | F2 AF BFAF | ABde fgfe ||
dcdA FD D2 | dcde fgfe | dcdA FD D2 | G2F2 EFDE |
dcdA FD D2 | dcde fgfe | dcdA FD D2 | G2F2 EFDE |]

